static/images/home-page/sections/section-cases/cursor-hover.svg

<svg width="40" height="43" viewBox="0 0 40 43" fill="none" xmlns="http://www.w3.org/2000/svg">
<g id="Cursor / Pointing hand">
<path id="Fill 1" fill-rule="evenodd" clip-rule="evenodd" d="M8.88383 33.013C8.12649 32.0557 7.20649 30.0984 5.56916 27.7224C4.64116 26.3784 2.33983 23.8477 1.65449 22.5624C1.05983 21.4264 1.12383 20.917 1.26516 19.9757C1.51583 18.301 3.23316 16.997 5.06516 17.173C6.44916 17.3037 7.62249 18.2184 8.67849 19.0824C9.31583 19.6024 10.0998 20.613 10.5718 21.1837C11.0065 21.7064 11.1132 21.9224 11.5772 22.541C12.1905 23.3597 12.3825 23.765 12.1478 22.8637C11.9585 21.541 11.6492 19.2824 11.2012 17.285C10.8598 15.7704 10.7772 15.533 10.4518 14.3704C10.1078 13.133 9.93183 12.2664 9.60916 10.9544C9.38516 10.0264 8.98249 8.13037 8.87316 7.0637C8.72116 5.60503 8.64116 3.22637 9.57716 2.13303C10.3105 1.27703 11.9932 1.01837 13.0358 1.54637C14.4012 2.23703 15.1772 4.22103 15.5318 5.01303C16.1692 6.43703 16.5638 8.08237 16.9078 10.2424C17.3452 12.9917 18.1505 16.8077 18.1772 17.6104C18.2412 16.6264 17.9958 14.5544 18.1665 13.6104C18.3212 12.7544 19.0412 11.7597 19.9425 11.4904C20.7052 11.2637 21.5985 11.181 22.3852 11.3437C23.2198 11.5144 24.0998 12.1117 24.4278 12.6744C25.3932 14.3384 25.4118 17.7384 25.4518 17.557C25.6812 16.5544 25.6412 14.2797 26.2092 13.333C26.5825 12.709 27.5345 12.1464 28.0412 12.0557C28.8252 11.917 29.7878 11.8744 30.6118 12.0344C31.2758 12.165 32.1745 12.9544 32.4172 13.333C32.9985 14.2504 33.3292 16.845 33.4278 17.7544C33.4678 18.1304 33.6252 16.709 34.2092 15.7917C35.2918 14.0877 39.1238 13.757 39.2705 17.4957C39.3372 19.2397 39.3238 19.1597 39.3238 20.333C39.3238 21.7117 39.2918 22.541 39.2172 23.5384C39.1345 24.605 38.9052 27.0157 38.5718 28.1837C38.3425 28.9864 37.5825 30.7917 36.8332 31.8744C36.8332 31.8744 33.9692 35.2077 33.6572 36.709C33.3425 38.2077 33.4465 38.2184 33.3852 39.2824C33.3238 40.3437 33.7078 41.741 33.7078 41.741C33.7078 41.741 31.5692 42.0184 30.4172 41.8344C29.3745 41.6664 28.0838 39.5917 27.7505 38.957C27.2918 38.0824 26.3132 38.2504 25.9318 38.8957C25.3318 39.917 24.0412 41.749 23.1292 41.8637C21.3478 42.0877 17.6518 41.9464 14.7585 41.917C14.7585 41.917 15.2518 39.221 14.1532 38.2957C13.3398 37.605 11.9398 36.205 11.1025 35.469L8.88383 33.013Z" fill="white"/>
<path id="Stroke 3" fill-rule="evenodd" clip-rule="evenodd" d="M8.88383 33.013C8.12649 32.0557 7.20649 30.0984 5.56916 27.7224C4.64116 26.3784 2.33983 23.8477 1.65449 22.5624C1.05983 21.4264 1.12383 20.917 1.26516 19.9757C1.51583 18.301 3.23316 16.997 5.06516 17.173C6.44916 17.3037 7.62249 18.2184 8.67849 19.0824C9.31583 19.6024 10.0998 20.613 10.5718 21.1837C11.0065 21.7064 11.1132 21.9224 11.5772 22.541C12.1905 23.3597 12.3825 23.765 12.1478 22.8637C11.9585 21.541 11.6492 19.2824 11.2012 17.285C10.8598 15.7704 10.7772 15.533 10.4518 14.3704C10.1078 13.133 9.93183 12.2664 9.60916 10.9544C9.38516 10.0264 8.98249 8.13037 8.87316 7.0637C8.72116 5.60503 8.64116 3.22637 9.57716 2.13303C10.3105 1.27703 11.9932 1.01837 13.0358 1.54637C14.4012 2.23703 15.1772 4.22103 15.5318 5.01303C16.1692 6.43703 16.5638 8.08237 16.9078 10.2424C17.3452 12.9917 18.1505 16.8077 18.1772 17.6104C18.2412 16.6264 17.9958 14.5544 18.1665 13.6104C18.3212 12.7544 19.0412 11.7597 19.9425 11.4904C20.7052 11.2637 21.5985 11.181 22.3852 11.3437C23.2198 11.5144 24.0998 12.1117 24.4278 12.6744C25.3932 14.3384 25.4118 17.7384 25.4518 17.557C25.6812 16.5544 25.6412 14.2797 26.2092 13.333C26.5825 12.709 27.5345 12.1464 28.0412 12.0557C28.8252 11.917 29.7878 11.8744 30.6118 12.0344C31.2758 12.165 32.1745 12.9544 32.4172 13.333C32.9985 14.2504 33.3292 16.845 33.4278 17.7544C33.4678 18.1304 33.6252 16.709 34.2092 15.7917C35.2918 14.0877 39.1238 13.757 39.2705 17.4957C39.3372 19.2397 39.3238 19.1597 39.3238 20.333C39.3238 21.7117 39.2918 22.541 39.2172 23.5384C39.1345 24.605 38.9052 27.0157 38.5718 28.1837C38.3425 28.9864 37.5825 30.7917 36.8332 31.8744C36.8332 31.8744 33.9692 35.2077 33.6572 36.709C33.3425 38.2077 33.4465 38.2184 33.3852 39.2824C33.3238 40.3437 33.7078 41.741 33.7078 41.741C33.7078 41.741 31.5692 42.0184 30.4172 41.8344C29.3745 41.6664 28.0838 39.5917 27.7505 38.957C27.2918 38.0824 26.3132 38.2504 25.9318 38.8957C25.3318 39.917 24.0412 41.749 23.1292 41.8637C21.3478 42.0877 17.6518 41.9464 14.7585 41.917C14.7585 41.917 15.2518 39.221 14.1532 38.2957C13.3398 37.605 11.9398 36.205 11.1025 35.469L8.88383 33.013V33.013Z" stroke="black" stroke-width="0.75" stroke-linecap="round" stroke-linejoin="round"/>
<path id="Stroke 5" d="M30.8438 33.9584V24.7344" stroke="black" stroke-width="0.75" stroke-linecap="round"/>
<path id="Stroke 7" d="M25.4689 33.9896L25.4263 24.7283" stroke="black" stroke-width="0.75" stroke-linecap="round"/>
<path id="Stroke 9" d="M20.146 24.8125L20.202 33.9485" stroke="black" stroke-width="0.75" stroke-linecap="round"/>
</g>
</svg>

<svg xmlns="http://www.w3.org/2000/svg" width="40" height="43" fill="none"><path fill="#fff" fill-rule="evenodd" d="M8.884 33.013c-.758-.957-1.678-2.915-3.315-5.29-.928-1.345-3.23-3.875-3.915-5.16-.594-1.137-.53-1.646-.389-2.587.25-1.675 1.968-2.979 3.8-2.803 1.384.13 2.557 1.045 3.613 1.91.638.52 1.422 1.53 1.894 2.1.435.523.541.74 1.005 1.358.614.819.806 1.224.57.323-.188-1.323-.498-3.582-.946-5.579-.341-1.515-.424-1.752-.75-2.915-.343-1.237-.52-2.104-.842-3.416-.224-.928-.627-2.824-.736-3.89-.152-1.459-.232-3.838.704-4.931.733-.856 2.416-1.115 3.459-.587 1.365.691 2.141 2.675 2.496 3.467.637 1.424 1.032 3.07 1.376 5.23.437 2.749 1.242 6.565 1.27 7.367.063-.984-.182-3.056-.012-4 .155-.856.875-1.85 1.776-2.12.763-.226 1.657-.309 2.443-.146.835.17 1.715.768 2.043 1.33.965 1.664.984 5.064 1.024 4.883.23-1.003.19-3.277.757-4.224.373-.624 1.326-1.187 1.832-1.277.784-.139 1.747-.182 2.57-.022.665.131 1.564.92 1.806 1.299.581.917.912 3.512 1.01 4.421.04.376.198-1.045.782-1.962 1.083-1.704 4.915-2.035 5.061 1.704.067 1.744.054 1.664.054 2.837 0 1.379-.032 2.208-.107 3.205-.082 1.067-.312 3.478-.645 4.646-.23.802-.99 2.608-1.739 3.69 0 0-2.864 3.334-3.176 4.835-.314 1.499-.21 1.51-.272 2.573-.061 1.062.323 2.459.323 2.459s-2.139.277-3.29.093c-1.043-.168-2.334-2.242-2.668-2.877-.458-.875-1.437-.707-1.818-.061-.6 1.021-1.89 2.853-2.803 2.968-1.781.224-5.477.082-8.37.053 0 0 .493-2.696-.606-3.621-.813-.691-2.213-2.091-3.05-2.827l-2.22-2.456Z" clip-rule="evenodd"/><path stroke="#000" stroke-linecap="round" stroke-linejoin="round" stroke-width=".75" d="M8.884 33.013c-.758-.957-1.678-2.915-3.315-5.29-.928-1.345-3.23-3.875-3.915-5.16-.594-1.137-.53-1.646-.389-2.587.25-1.675 1.968-2.979 3.8-2.803 1.384.13 2.557 1.045 3.613 1.91.638.52 1.422 1.53 1.894 2.1.435.523.541.74 1.005 1.358.614.819.806 1.224.57.323-.188-1.323-.498-3.582-.946-5.579-.341-1.515-.424-1.752-.75-2.915-.343-1.237-.52-2.104-.842-3.416-.224-.928-.627-2.824-.736-3.89-.152-1.459-.232-3.838.704-4.931.733-.856 2.416-1.115 3.459-.587 1.365.691 2.141 2.675 2.496 3.467.637 1.424 1.032 3.07 1.376 5.23.437 2.749 1.242 6.565 1.27 7.367.063-.984-.182-3.056-.012-4 .155-.856.875-1.85 1.776-2.12.763-.226 1.657-.309 2.443-.146.835.17 1.715.768 2.043 1.33.965 1.664.984 5.064 1.024 4.883.23-1.003.19-3.277.757-4.224.373-.624 1.326-1.187 1.832-1.277.784-.139 1.747-.182 2.57-.022.665.131 1.564.92 1.806 1.299.581.917.912 3.512 1.01 4.421.04.376.198-1.045.782-1.962 1.083-1.704 4.915-2.035 5.061 1.704.067 1.744.054 1.664.054 2.837 0 1.379-.032 2.208-.107 3.205-.082 1.067-.312 3.478-.645 4.646-.23.802-.99 2.608-1.739 3.69 0 0-2.864 3.334-3.176 4.835-.314 1.499-.21 1.51-.272 2.573-.061 1.062.323 2.459.323 2.459s-2.139.277-3.29.093c-1.043-.168-2.334-2.242-2.668-2.877-.458-.875-1.437-.707-1.818-.061-.6 1.021-1.89 2.853-2.803 2.968-1.781.224-5.477.082-8.37.053 0 0 .493-2.696-.606-3.621-.813-.691-2.213-2.091-3.05-2.827l-2.22-2.456v0Z" clip-rule="evenodd"/><path stroke="#000" stroke-linecap="round" stroke-width=".75" d="M30.844 33.958v-9.224M25.469 33.99l-.043-9.262M20.146 24.813l.056 9.136"/></svg>
